storage/app/icons/phosphoricons/regular/squares-four.svg

<svg xmlns="http://www.w3.org/2000/svg" fill="currentColor" viewBox="0 0 256 256"><path d="M104 40H56a16 16 0 0 0-16 16v48a16 16 0 0 0 16 16h48a16 16 0 0 0 16-16V56a16 16 0 0 0-16-16m0 64H56V56h48zm96-64h-48a16 16 0 0 0-16 16v48a16 16 0 0 0 16 16h48a16 16 0 0 0 16-16V56a16 16 0 0 0-16-16m0 64h-48V56h48zm-96 32H56a16 16 0 0 0-16 16v48a16 16 0 0 0 16 16h48a16 16 0 0 0 16-16v-48a16 16 0 0 0-16-16m0 64H56v-48h48zm96-64h-48a16 16 0 0 0-16 16v48a16 16 0 0 0 16 16h48a16 16 0 0 0 16-16v-48a16 16 0 0 0-16-16m0 64h-48v-48h48z"/></svg>

<svg xmlns="http://www.w3.org/2000/svg" viewBox="0 0 256 256" fill="currentColor"><path d="M104,40H56A16,16,0,0,0,40,56v48a16,16,0,0,0,16,16h48a16,16,0,0,0,16-16V56A16,16,0,0,0,104,40Zm0,64H56V56h48v48Zm96-64H152a16,16,0,0,0-16,16v48a16,16,0,0,0,16,16h48a16,16,0,0,0,16-16V56A16,16,0,0,0,200,40Zm0,64H152V56h48v48Zm-96,32H56a16,16,0,0,0-16,16v48a16,16,0,0,0,16,16h48a16,16,0,0,0,16-16V152A16,16,0,0,0,104,136Zm0,64H56V152h48v48Zm96-64H152a16,16,0,0,0-16,16v48a16,16,0,0,0,16,16h48a16,16,0,0,0,16-16V152A16,16,0,0,0,200,136Zm0,64H152V152h48v48Z"/></svg>
